!! Stephen C. Foster, "Ring, Ring de Banjo!"
!! from 'Stephen Foster Song Book' Dover Publications (New York) pp. 111-113
!! NOTE:  Leading and trailing bars of rest have been omitted.
**kern
*M2/4
*MM84
*F:
8cc
=1
8cc
8a
8.f
16g
=2
8a
4cc
16cc
16cc
=3
8dd
8cc
8.a
16f
=4
4g
8r
8g
=5
8f
8g
8a
8b-
=6
8cc
4ff
16dd
16dd
=7
8cc
8a
8.g
16g
=8
4f
8r
8cc
=9
8cc
8a
8f
8g
=10
8a
4cc
16cc
16cc
=11
8dd
8cc
8.a
16f
=12
4g
8r
16g
16g
=13
8.f
16g
8a
8b-
=14
8cc
4ff;
16dd
16dd
=15
8cc
8a
8.g
16g
=16
4.f
8r
!! Chorus:
=17
4cc
8.cc
16cc
=18
8a
4cc
8cc
=19
8dd
8cc
8a
8f
=20
4.g
8r
=21
8.f
16g
8a
8b-
=22
8cc
4ff
8dd
=23
8.cc
16a
8.g
16g
=24
4.f
8r
=25
4cc
8.cc
16cc
=26
8a
4cc
8cc
=27
8dd
8cc
8a
8f
=28
4.g
8r
=29
8.f
16g
8a
8b-
=30
8cc
4ff
8dd
=31
8.cc
16a
8.g
16g
=32
4.f
8r
==
*-
